X: 21
T: 1868
R: waltz
M: 3/4
K: Dmajor
A,2|F3B Af|d2f2d2|A3d AF|D2DE FA|
B3g dB|(3ABA d2dB|A3d (3BAF|E3D DE|
F3B Af|d2f2d2|A3d AF|D2DE FA|
B3c dB|(3ABA F2D2|E3D FE|1 D4:|2 D3d cd||
Bg gf gf|gB Bg gf|gB BA Bc|B3c cB|
Af fe fe|fA Af fe|fA AGFG|A3d cd|
B3d cd|A3d cd|G3F FG|FD B,D FG|
FE ED EF|E4 (3efg|af ed ef|qd3d cd:|2 d4||

